X: 8649
T: Cros An Lomanaigh
R: reel
M: 4/4
K: Gmajor
~B3A GBdB|cBAG FGAF|DG~G2 ~A3B|cBAG FGAF|
DG~G2 ~B3A|GBdB c2Bc|dBcA BGAG|FGAc BGG||
B|dg~g2 bg~g2|defg afgf|dg~g2 dgge|fdcA BGGB|
dg~g2 bg~g2|defg afgf|dg~g2 dg~g2|~a3g fdcA||

